img/icons/instagram.svg

<svg width="18" height="18" viewBox="0 0 18 18" fill="none" xmlns="http://www.w3.org/2000/svg">
<path fill-rule="evenodd" clip-rule="evenodd" d="M1.5 6C1.5 3.51472 3.51472 1.5 6 1.5H12C14.4853 1.5 16.5 3.51472 16.5 6V12C16.5 14.4853 14.4853 16.5 12 16.5H6C3.51472 16.5 1.5 14.4853 1.5 12V6ZM6 3C4.34315 3 3 4.34315 3 6V12C3 13.6569 4.34315 15 6 15H12C13.6569 15 15 13.6569 15 12V6C15 4.34315 13.6569 3 12 3H6ZM7.5 9C7.5 9.82843 8.17157 10.5 9 10.5C9.82843 10.5 10.5 9.82843 10.5 9C10.5 8.17157 9.82843 7.5 9 7.5C8.17157 7.5 7.5 8.17157 7.5 9ZM9 6C7.34315 6 6 7.34315 6 9C6 10.6569 7.34315 12 9 12C10.6569 12 12 10.6569 12 9C12 7.34315 10.6569 6 9 6ZM12.375 4.5C11.7537 4.5 11.25 5.00368 11.25 5.625C11.25 6.24632 11.7537 6.75 12.375 6.75C12.9963 6.75 13.5 6.24632 13.5 5.625C13.5 5.00368 12.9963 4.5 12.375 4.5Z" fill="#333333"/>
</svg>

<svg width="18" height="18" fill="none" xmlns="http://www.w3.org/2000/svg"><path fill-rule="evenodd" clip-rule="evenodd" d="M1.5 6A4.5 4.5 0 016 1.5h6A4.5 4.5 0 0116.5 6v6a4.5 4.5 0 01-4.5 4.5H6A4.5 4.5 0 011.5 12V6zM6 3a3 3 0 00-3 3v6a3 3 0 003 3h6a3 3 0 003-3V6a3 3 0 00-3-3H6zm1.5 6a1.5 1.5 0 103 0 1.5 1.5 0 00-3 0zM9 6a3 3 0 100 6 3 3 0 000-6zm3.375-1.5a1.125 1.125 0 100 2.25 1.125 1.125 0 000-2.25z" fill="#333"/></svg>
